X: 24074
T: Long Drop, The
R: reel
M: 4/4
K: Gmajor
|:gedg edBA|GE~E2 ~E3F|GFGA BABc|dBeB dB~B2|
gedg edBA|GE~E2 ~E3F|GFGA BABc|1 dBAc BGG2:|2 dBAc BGBd||
|:gBBA B2gB|Bg~g2 aged|~c3d edef|gabg egde|
gBBA B2gB|Bg~g2 aged|~c3d edef|1 gedc BGG2:|2 gabg egde||

